assets/img/microillustration/testimonial.svg

<?xml version="1.0" encoding="UTF-8"?>
<svg viewBox="0 0 106 106" version="1.1" xmlns="http://www.w3.org/2000/svg" xmlns:xlink="http://www.w3.org/1999/xlink">
    <title>4. Elements_Microillustrations/Testimonial</title>
    <g id="4.-Elements_Microillustrations/Testimonial" stroke="none" stroke-width="1" fill="none" fill-rule="evenodd">
        <path d="M75.519546,81 C80.0485078,81 83.7936108,79.7901235 86.754855,77.3703704 C89.7160992,74.9506173 91.1967213,71.6666667 91.1967213,67.5185185 C91.1967213,63.0246914 89.8467423,59.4814815 87.1467844,56.8888889 C84.4468264,54.2962963 80.8323665,53.4320988 76.3034048,54.2962963 C75.9550231,49.8024691 77.0872636,46 79.7001261,42.8888889 C82.3129887,39.7777778 85.70971,37.2716049 89.89029,35.3703704 L89.89029,35.3703704 L82.8355612,25 C80.5710803,25.691358 77.9582177,26.9012346 74.9969735,28.6296296 C72.0357293,30.3580247 69.2486759,32.6481481 66.6358134,35.5 C64.0229508,38.3518519 61.8020177,41.9382716 59.9730139,46.2592593 C58.1440101,50.5802469 57.2295082,55.6790123 57.2295082,61.5555556 C57.2295082,67.9506173 58.8843211,72.7901235 62.193947,76.0740741 C65.5035729,79.3580247 69.9454393,81 75.519546,81 Z M33.2900378,81 C37.8189996,81 41.5641026,79.7901235 44.5253468,77.3703704 C47.486591,74.9506173 48.9672131,71.6666667 48.9672131,67.5185185 C48.9672131,63.0246914 47.6172341,59.4814815 44.9172762,56.8888889 C42.2173182,54.2962963 38.6028583,53.4320988 34.0738966,54.2962963 C33.7255149,49.8024691 34.8577554,46 37.4706179,42.8888889 C40.0834805,39.7777778 43.4802018,37.2716049 47.6607818,35.3703704 L47.6607818,35.3703704 L40.606053,25 C38.3415721,25.691358 35.7287095,26.9012346 32.7674653,28.6296296 C29.8062211,30.3580247 27.0191677,32.6481481 24.4063052,35.5 C21.7934426,38.3518519 19.5725095,41.9382716 17.7435057,46.2592593 C15.9145019,50.5802469 15,55.6790123 15,61.5555556 C15,67.9506173 16.6548129,72.7901235 19.9644388,76.0740741 C23.2740647,79.3580247 27.7159311,81 33.2900378,81 Z" id="“" fill="#009BBD"></path>
    </g>
</svg>

<svg viewBox="0 0 106 106" xmlns="http://www.w3.org/2000/svg"><path d="M75.52 81c4.529 0 8.274-1.21 11.235-3.63 2.961-2.42 4.442-5.703 4.442-9.851 0-4.494-1.35-8.038-4.05-10.63-2.7-2.593-6.315-3.457-10.844-2.593-.348-4.494.784-8.296 3.397-11.407 2.613-3.111 6.01-5.617 10.19-7.519L82.836 25c-2.265.691-4.878 1.901-7.839 3.63-2.961 1.728-5.748 4.018-8.361 6.87-2.613 2.852-4.834 6.438-6.663 10.76-1.829 4.32-2.743 9.419-2.743 15.296 0 6.395 1.654 11.234 4.964 14.518C65.504 79.358 69.945 81 75.52 81zm-42.23 0c4.529 0 8.274-1.21 11.235-3.63 2.962-2.42 4.442-5.703 4.442-9.851 0-4.494-1.35-8.038-4.05-10.63-2.7-2.593-6.314-3.457-10.843-2.593-.348-4.494.784-8.296 3.397-11.407 2.612-3.111 6.01-5.617 10.19-7.519L40.606 25c-2.264.691-4.877 1.901-7.839 3.63-2.96 1.728-5.748 4.018-8.36 6.87-2.614 2.852-4.834 6.438-6.663 10.76C15.914 50.58 15 55.678 15 61.555c0 6.395 1.655 11.234 4.964 14.518C23.274 79.358 27.716 81 33.29 81z" fill="#009BBD" fill-rule="evenodd"/></svg>
